Sources/FrostedUI/Resources/Icons.xcassets/unpinFilled24.imageset/unpin-filled-24.svg

<svg width="24" height="24" viewBox="0 0 24 24" fill="none" xmlns="http://www.w3.org/2000/svg" data-fui-icon="true">
  <path
    d="M1.21973 1.21973C1.51262 0.926862 1.98739 0.926843 2.28027 1.21973L22.7803 21.7197C23.0731 22.0126 23.0731 22.4874 22.7803 22.7803C22.4874 23.0732 22.0126 23.0731 21.7197 22.7803L16.9395 18H13.0498C12.8844 18.0002 12.7501 18.1343 12.75 18.2998V22.25C12.75 22.6641 12.4141 22.9999 12 23C11.5859 22.9999 11.25 22.6642 11.25 22.25V18.2998C11.2499 18.1342 11.1158 18 10.9502 18H6.55957C4.36679 17.9998 2.94028 15.6918 3.9209 13.7305L5.82617 9.92188C5.94069 9.6928 5.99999 9.4397 6 9.18359V7.06055L1.21973 2.28027C0.926833 1.98738 0.926833 1.51262 1.21973 1.21973ZM15.0498 1C16.679 1.00011 18 2.32102 18 3.9502V9.18359C18 9.4397 18.0593 9.6928 18.1738 9.92188L20.0791 13.7305C20.5313 14.6348 20.4704 15.612 20.0596 16.4033C19.973 16.5701 19.7511 16.5909 19.6182 16.458L6.29102 3.12988C6.21043 3.049 6.18192 2.92876 6.22559 2.82324C6.66833 1.75344 7.72044 1.00008 8.9502 1H15.0498Z"
    fill="currentColor"
  />
</svg>

<svg xmlns="http://www.w3.org/2000/svg" width="24" height="24" fill="none" data-fui-icon="true" viewBox="0 0 24 24"><path fill="currentColor" d="M1.22 1.22a.75.75 0 0 1 1.06 0l20.5 20.5a.75.75 0 0 1-1.06 1.06L16.94 18h-3.89a.3.3 0 0 0-.3.3v3.95a.75.75 0 0 1-1.5 0V18.3a.3.3 0 0 0-.3-.3H6.56c-2.193 0-3.62-2.308-2.64-4.27l1.906-3.808c.115-.23.174-.482.174-.738V7.06L1.22 2.28a.75.75 0 0 1 0-1.061M15.05 1A2.95 2.95 0 0 1 18 3.95v5.234c0 .256.06.509.174.738l1.905 3.808a2.92 2.92 0 0 1-.02 2.673c-.086.167-.308.188-.44.055L6.29 3.13a.28.28 0 0 1-.065-.307A2.95 2.95 0 0 1 8.95 1z"/></svg>
